!!!COM:	Japart, Jean
!!!CDT:	~1450//-~1507//
!!!OTL:	Cela sans plus ne souffi pas
!!!AGN:	Song; Chanson
!!!SCT:	Jap3003
!!!SCA:	Jap3003
!!!voices:	4
**kern	**kern	**kern	**kern
*staff4	*staff3	*staff2	*staff1
*Ivox	*Ivox	*Ivox	*Ivox
*I"Bassus	*I"Tenor	*I"Altus	*I"Discantus
*I'B	*I'T	*I'A	*I'D
*clefF4	*clefGv2	*clefGv2	*clefG2
*k[b-e-]	*k[b-e-]	*k[b-e-]	*k[b-e-]
*M2/1	*M2/1	*M2/1	*M2/1
*met(C|)	*met(C|)	*met(C|)	*met(C|)
=1-	=1-	=1-	=1-
1C	0r	0c	0r
[1F	.	.	.
=2	=2	=2	=2
1F]	0r	1A	0r
1E-	.	1G	.
=3	=3	=3	=3
1F	0F	2F	0r
.	.	2c	.
2BB-	.	2d	.
2AA	.	[2c	.
=4	=4	=4	=4
1BB-	1D	4c]	0r
.	.	4B-	.
.	.	1B-	.
1FF	1C	.	.
.	.	2A	.
=5	=5	=5	=5
1r	0BB-	1B-	0f
[1BB-	.	2F	.
.	.	[2B-	.
=6	=6	=6	=6
1BB-]	0r	2B-]	1d
.	.	4A	.
.	.	4G	.
1AA	.	4A	1c
.	.	4G	.
.	.	4F	.
.	.	4E-	.
=7	=7	=7	=7
0BB-	0D	2D	0B-
.	.	1F	.
.	.	4E-	.
.	.	4D	.
=8	=8	=8	=8
1C	1.E-	2C	0r
.	.	1G	.
1r	.	.	.
.	4D	2F	.
.	4C	.	.
=9	=9	=9	=9
1r	2BB-	2G	0d
.	1C	4F	.
.	.	4E-	.
1F	.	1D	.
.	2BBni	.	.
=10	=10	=10	=10
2E-	2C	1C	1.e-
1C	1G	.	.
.	.	1r	.
2D	2F	.	4d
.	.	.	4c
=11	=11	=11	=11
1GG	2G	1r	2B-
.	2E-	.	1c
1r	1D	1F	.
.	.	.	2Bni
=12	=12	=12	=12
1r	0C	1G	[0c
1C	.	1G	.
=13	=13	=13	=13
[0FF	1r	1.A	0c]
.	1c	.	.
.	.	4G	.
.	.	4F	.
=14	=14	=14	=14
1FF]	1c	1A	0r
1GG	1B-	1G	.
=15	=15	=15	=15
1AA	1.A	2C	1r
.	.	2.F	.
[1FF	.	.	1cc
.	.	4G	.
.	2F	2A	.
=16	=16	=16	=16
1FF]	1A	1F	1cc
1GG	1G	1r	1b-
=17	=17	=17	=17
1AA	2D	1r	1.a
.	2.F	.	.
1FF	.	1c	.
.	4G	.	.
.	[2A	.	2f
=18	=18	=18	=18
0r	4A]	1c	1a
.	4G	.	.
.	1F	.	.
.	.	1B-	1g
.	2Eni	.	.
=19	=19	=19	=19
0FF	2F	2A	2d
.	2.A	2.c	2.f
.	4B-	4B-	4g
.	[2c	4A	[2a
.	.	4G	.
=20	=20	=20	=20
1r	4c]	1F	4a]
.	4B-	.	4g
.	2A	.	1f
2r	1G	1C	.
2C	.	.	2eni
=21	=21	=21	=21
2.D	0F	1r	[0f
4E-	.	.	.
2F	.	1D	.
[2BB-	.	.	.
=22	=22	=22	=22
4BB-]	1r	1.D	0f]
4C	.	.	.
4D	.	.	.
4E-	.	.	.
2F	1A	.	.
[2D	.	[2F	.
=23	=23	=23	=23
4D]	1A	4F]	0r
4C	.	4E-	.
4BB-	.	4D	.
4AA	.	4C	.
1GG	1B-	1D	.
=24	=24	=24	=24
2r	1.c	2C	0r
1C	.	2.E-	.
.	.	4F	.
2GG	2B-	[2G	.
=25	=25	=25	=25
1D	1A	2G]	0r
.	.	2F	.
2.E-	[1G	2G	.
.	.	[2B-	.
4D	.	.	.
=26	=26	=26	=26
2E-	2G]	4B-]	0r
.	.	4c	.
1BB-	2F	1d	.
.	2G	.	.
2C	2E-	[2c	.
=27	=27	=27	=27
1GG	1D	2c]	0r
.	.	2B-	.
2r	2C	2A	.
2C	[2E-	[2G	.
=28	=28	=28	=28
1C	4E-]	4G]	0r
.	4F	4F	.
.	2.G	4E-	.
.	.	4D	.
2E-	.	2C	.
.	4E-	.	.
2C	[2A	[2c	.
=29	=29	=29	=29
1F	4A]	4c]	0r
.	4G	4B-	.
.	1F	2A	.
1C	.	1G	.
.	2Eni	.	.
=30	=30	=30	=30
2r	0F	1F	1a
1FF	.	.	.
.	.	1r	1a
2AA	.	.	.
=31	=31	=31	=31
1GG	0r	1G	1b-
1FF	.	2.A	[1cc
.	.	4B-	.
=32	=32	=32	=32
2r	0r	2c	2cc]
2E-	.	2.d	2b-
1F	.	.	1a
.	.	4c	.
.	.	2d	.
=33	=33	=33	=33
2G	0r	2B-	1.g
1E-	.	2c	.
.	.	2e-	.
2F	.	[2d	2f
=34	=34	=34	=34
2E-	0r	2d]	2g
2C	.	1c	2e-
1G	.	.	1d
.	.	2Bni	.
=35	=35	=35	=35
1C	0r	1c	2c
.	.	.	2g
2F	.	1c	2a
2E-	.	.	[2g
=36	=36	=36	=36
1F	0r	1A	2g]
.	.	.	1f
1C	.	1G	.
.	.	.	2eni
=37	=37	=37	=37
0FF	1r	2F	0f
.	.	2.A	.
.	1F	.	.
.	.	4B-	.
.	.	[2c	.
=38	=38	=38	=38
1BB-	1D	4c]	0r
.	.	4B-	.
.	.	1B-	.
1FF	1C	.	.
.	.	2A	.
=39	=39	=39	=39
1r	0BB-	1B-	1r
[1BB-	.	2F	1f
.	.	[2B-	.
=40	=40	=40	=40
1BB-]	0r	2B-]	1d
.	.	4A	.
.	.	4G	.
1AA	.	4A	1c
.	.	4G	.
.	.	4F	.
.	.	4E-	.
=41	=41	=41	=41
0BB-	0D	2D	0B-
.	.	1F	.
.	.	4E-	.
.	.	4D	.
=42	=42	=42	=42
1C	1.E-	2C	0r
.	.	1G	.
1r	.	.	.
.	4D	2F	.
.	4C	.	.
=43	=43	=43	=43
1r	2BB-	2G	0d
.	1C	4F	.
.	.	4E-	.
1F	.	1D	.
.	2BBni	.	.
=44	=44	=44	=44
1E-	1C	2C	1.e-
.	.	2.c	.
1C	1E-	.	.
.	.	4B-	.
.	.	4A	4d
.	.	4G	4c
=45	=45	=45	=45
1r	0D	2F	2B-
.	.	1G	2.c
1D	.	.	.
.	.	.	4Bni
.	.	2F	4Bni
.	.	.	4A
=46	=46	=46	=46
1.E-	[0Cl	[0Gl	[0cl
2C	.	.	.
=47	=47	=47	=47
0Cl	0C]	0G]	0c]
==	==	==	==
*-	*-	*-	*-
!!!RDF**kern: l=long note in original notation
!!!RDF**kern: i=editorial accidental
!!!ENC:	Chris Gage 09-04-2013
!!!END:	2013/10/22/
!!!EED:	Jesse Rodin
!!!EEV:	2013/12/19/
!!!ONB:	Translated from MusicXML and edited on 2013/12/19/ by Craig Sapp
!!muse2ps: C^@{COM}^i2I150v85,85,85,100Q16
